X: 35347
T: Rosh And Dans
R: reel
M: 4/4
K: Gmajor
|:deed e2 d(e|e)Bde fedB|GAAG A2 GA|B3 g fddA|
Beed eed(e|e)Bde fedB|BeAG A2 GA|B3 g fd e2:|
|:g2 ag f2 ed|e3 d Beed|BABd fgfd|B2 ga fddf|
edBA G3 B|B2 GA Beed|BeAG A2 GA|B3 g fd e2:|

